X:1
T:Title
%%score { ( 1 4 5 ) | ( 2 3 6 ) }
L:1/8
Q:1/4=100
M:4/4
K:G
V:1 treble nm="Grand Piano"
V:4 treble 
V:5 treble 
V:2 treble 
V:3 treble 
V:6 treble 
V:1
 G2 G2 (3GFG (3AGA | B2 B2 (3BAB (3cBc | [Bd]>[_B^c] [=Bd]>[_Be] [=Bd]>[GB] [=FA]>B | %3
w: Chas.~H.~Gabriel * * * * * * *|||
 [CEA]2 [CEA]2 [G,CE]2 z2 | [DFA]2 [DFA]2 z4 | [DGB]2 [DGB]2 z4 | [Ac]>[GB] [Ac]>[GB] [FA]>^G A>c | %7
w: ||||
[M:3/4] B2 [G^c]2 [Fd]2 |[M:1/4][K:bass] D,>D, |[M:4/4][K:treble] z2 (3ddd d2 [FAcd]2 | %10
w: |||
 z2 (3[Gd][Gd][Gd] [DGBd]2 B>B | [FA]2 [ce]2 [Bd]2 [Ac]2 |[M:3/4] [GB]6 |[M:1/4][K:bass] D,>D, | %14
w: ||||
[M:4/4][K:treble] z2 (3ddd d2 [DFAcd]2 | z2 (3ddd [Bd]2 B>B | A2 B2 ^c2 e2 |[M:3/4] [Fd]6[K:bass] | %18
w: ||||
[M:1/4][K:treble] D>D |[M:4/4] G2 (3[DGB][DG-B][DGB] [GB]>F G>A | %20
w: ||
 _B2 (3[^CGB][CGB-][CGB] [GB]>B A>G | [DGB]2 [Gd]2 [Fd]2 [DF]2 | [B,DG]8 |] %23
w: |||
V:2
 [G,B,D]2 [G,B,D]2 z4 | [G,DG]2 [G,DG]2 z4 | [G,,G,]2 [D,G,B,]2 [G,,G,]2 z z/ =F/ | %3
 C,2 C,2 C,2[K:treble] (3EFG | D,2 D,2[K:treble] (3ADE (3FGA | D,2 D,2[K:treble] (3BEF (3GAB | %6
 [D,,D,]2 [F,A,D]2 z z/[K:treble] =F/ ^F>A |[M:3/4] [G,DG]2[K:bass] [E,A,]2 [D,A,]2 |[M:1/4] z2 | %9
[M:4/4] z2[K:treble] (3[FA][FA][FA] [A,FA]2[K:bass] F,>D, | z2 (3DD[K:treble]D G,2 G>G | %11
 D,2 [F,A,D]2 D,>E, F,>E, |[M:3/4] [G,,G,]2 [G,B,]2 [G,B,]2 |[M:1/4] z2 | %14
[M:4/4] z2[K:treble] (3[FA][FA][FA] [A,DFA]2[K:bass] F,>D, | %15
 z2[K:treble] (3[DG][DG][DG] [G,DG]2 [G,DG]>[G,DG] | [A,^CG]2 [A,CG]2 [A,EG]2 [A,G]2 | %17
[M:3/4][K:bass] A,2 z2 z2 |[M:1/4] D,>D, |[M:4/4] z4 D2 z2 | _B,6 z2 | D,2 [D,B,]2 [D,A,]2 [D,C]2 | %22
 [G,,G,]8 |] %23
V:3
 x8 | x8 | z4 z2 [D,G,]2 | x6[K:treble] x2 | x4[K:treble] x4 | x4[K:treble] x4 | %6
 z4 [D,,D,]2[K:treble] [F,A,D]2 |[M:3/4] x2[K:bass] x4 |[M:1/4] x2 | %9
[M:4/4] x2[K:treble] x4[K:bass] x2 | B,4[K:treble] z4 | x8 |[M:3/4] x6 |[M:1/4] x2 | %14
[M:4/4] x2[K:treble] x4[K:bass] x2 | x2[K:treble] x6 | x8 |[M:3/4][K:bass] D,6 |[M:1/4] x2 | %19
[M:4/4] z2 G,4 z2 | z2 (3^D,D,D, ^C>_B, A,>G, | x8 | x8 |] %23
V:4
 x8 | x8 | x8 | x8 | x8 | x8 | x8 |[M:3/4] x6 |[M:1/4][K:bass] x2 |[M:4/4][K:treble] C4 z4 | x8 | %11
 x8 |[M:3/4] z2 D2 D2 |[M:1/4][K:bass] x2 |[M:4/4][K:treble] C4 z4 | B,4 z4 | x8 | %17
[M:3/4] z2[K:bass] A,2 A,2 |[M:1/4][K:treble] x2 |[M:4/4] x8 | x8 | x8 | x8 |] %23
V:5
 x8 | x8 | x8 | x8 | x8 | x8 | x8 |[M:3/4] x6 |[M:1/4][K:bass] x2 |[M:4/4][K:treble] x8 | x8 | x8 | %12
[M:3/4] x6 |[M:1/4][K:bass] x2 |[M:4/4][K:treble] x8 | x8 | x8 | %17
[M:3/4] z z/[K:bass] F,/ z z/ C/ z z/ F,/ |[M:1/4][K:treble] x2 |[M:4/4] x8 | x8 | x8 | x8 |] %23
V:6
 x8 | x8 | x8 | x6[K:treble] x2 | x4[K:treble] x4 | x4[K:treble] x4 | x11/2[K:treble] x5/2 | %7
[M:3/4] x2[K:bass] x4 |[M:1/4] x2 |[M:4/4] x2[K:treble] x4[K:bass] x2 | x10/3[K:treble] x14/3 | %11
 x8 |[M:3/4] x6 |[M:1/4] x2 |[M:4/4] x2[K:treble] x4[K:bass] x2 | x2[K:treble] x6 | x8 | %17
[M:3/4][K:bass] x6 |[M:1/4] x2 |[M:4/4] G,2 (3z D,B,, z z/ F,/ G,>A, | x8 | x8 | x8 |] %23

